src/assets/icons/svg/adultFace.svg

<?xml version="1.0" encoding="UTF-8"?>
<svg width="84px" height="72px" viewBox="0 0 84 72" version="1.1" xmlns="http://www.w3.org/2000/svg" xmlns:xlink="http://www.w3.org/1999/xlink">
    <title>adultFace</title>
    <g id="MVP" stroke="none" stroke-width="1" fill="none" fill-rule="evenodd">
        <g id="Service-not-available" transform="translate(-682.000000, -329.000000)" fill="#2A2D2F" fill-rule="nonzero">
            <path d="M725.105808,329 C728.4315,329 735.961373,330.134816 743.623682,335.337221 C751.285991,340.539625 756.719265,348.483837 758.600014,357.552893 L758.600014,357.552893 L759.017958,357.552893 C761.525623,357.763802 763.685001,359.521371 764.938834,362.474087 C765.774722,364.442564 766.192666,366.832858 765.914037,369.223152 C765.56575,375.339492 762.082882,379.909172 757.90344,379.909172 L757.90344,379.909172 L757.555154,379.909172 C757.13721,379.909172 756.788923,379.838869 756.370979,379.698263 C750.728733,392.493366 737.981436,401 723.980307,401 C709.979178,401 697.231882,392.563669 691.659293,379.698263 C691.241349,379.768566 690.893062,379.909172 690.475118,379.909172 L690.475118,379.909172 L690.126832,379.909172 C685.94739,379.909172 682.464522,375.339492 682.046578,369.223152 C681.628634,363.669234 684.066641,359.029251 687.619167,357.834104 C685.181159,356.498352 683.370068,354.951691 682.325207,353.264425 C681.837606,352.491095 682.046578,351.36625 682.882466,350.874131 C683.648697,350.382012 684.763215,350.59292 685.250816,351.436553 C686.086705,352.702003 687.758481,354.037755 689.987517,355.1626 C692.495182,346.374754 698.276742,338.922662 706.148024,334.282679 C714.019305,329.642697 721.780116,329 725.105808,329 Z M738.329723,345.24991 C733.244736,351.788067 725.791399,356.920169 717.362858,359.591674 C712.904787,360.997729 708.307402,361.700756 703.849331,361.700756 C699.809204,361.700756 695.97805,361.068032 692.425524,359.943187 C692.146895,361.700756 692.00758,363.458325 692.00758,365.215894 C692.00758,369.152849 692.704154,373.089804 694.097301,376.745547 C698.764344,389.118833 710.815067,397.484862 723.980307,397.484862 C737.145548,397.484862 749.196271,389.118833 753.932971,376.81585 C755.326118,373.089804 756.022692,369.223152 756.022692,365.286197 C756.022692,364.512867 756.022692,363.739536 755.953034,362.966206 C755.53509,362.825601 755.117146,362.614692 754.768859,362.474087 C750.032159,360.365004 746.201004,357.341985 743.205738,353.405031 C741.185675,350.733526 739.513898,347.991718 738.329723,345.24991 Z M723.5,378 C726.582192,378 728.979452,378.929032 730.486301,380.709677 C731.171233,381.483871 731.171233,382.722581 730.486301,383.419355 C729.80137,384.193548 728.773973,384.193548 728.089041,383.419355 C727.19863,382.412903 725.691781,381.870968 723.5,381.870968 C721.308219,381.870968 719.80137,382.412903 718.910959,383.419355 C718.226027,384.193548 717.130137,384.193548 716.513699,383.419355 C715.828767,382.645161 715.828767,381.406452 716.513699,380.709677 C718.089041,378.929032 720.417808,378 723.5,378 Z M688.733684,361.138334 C686.922593,361.630454 685.181159,364.794078 685.459789,369.012244 C685.738418,373.581923 688.106768,376.604942 690.196489,376.464336 L690.196489,376.464336 L690.335804,376.464336 C689.151629,372.808593 688.524712,369.082546 688.524712,365.215894 C688.524712,363.880142 688.59437,362.474087 688.733684,361.138334 Z M759.22693,361.138334 L759.22693,361.489848 C759.366245,362.684995 759.435902,363.950445 759.435902,365.145592 C759.435902,369.012244 758.808986,372.73829 757.624811,376.394033 L757.624811,376.394033 L757.764126,376.394033 C759.784189,376.534639 762.222197,373.51162 762.500826,369.012244 C762.640141,367.184372 762.361511,365.3565 761.734595,363.809839 C761.107679,362.403784 760.202133,361.419545 759.22693,361.138334 L759.22693,361.138334 Z M741.5,365 C743.432997,365 745,366.567003 745,368.5 C745,370.432997 743.432997,372 741.5,372 C739.567003,372 738,370.432997 738,368.5 C738,366.567003 739.567003,365 741.5,365 Z M707.5,365 C709.432997,365 711,366.567003 711,368.5 C711,370.432997 709.432997,372 707.5,372 C705.567003,372 704,370.432997 704,368.5 C704,366.567003 705.567003,365 707.5,365 Z M742.230535,338.641451 C741.742933,339.695992 741.255332,340.680231 740.628416,341.664469 C741.742933,344.757791 743.554025,347.991718 745.922375,351.155342 C748.360382,354.389269 751.564621,356.920169 755.326118,358.74804 C753.723999,350.663223 749.056956,343.492341 742.230535,338.641451 Z M723.980307,332.946927 C718.756005,332.946927 713.601361,334.212377 709.003975,336.672973 C701.202351,340.820836 695.560105,347.991718 693.191755,356.638958 C697.301539,357.97471 705.660422,359.661976 716.248341,356.287444 C725.025168,353.475333 732.687477,347.78081 737.284863,340.680231 C738.051094,339.414781 738.747667,338.219634 739.304926,336.954184 C738.538695,336.462065 737.702807,336.040248 736.866918,335.688735 C732.757134,333.860863 728.438378,332.946927 723.980307,332.946927 Z" id="adultFace"></path>
        </g>
    </g>
</svg>

<?xml version="1.0" encoding="UTF-8"?><svg version="1.1" viewBox="0 0 84 72" xmlns="http://www.w3.org/2000/svg"><g fill="none" fill-rule="evenodd"><g transform="translate(-682 -329)" fill="#2A2D2F" fill-rule="nonzero"><path d="m725.11 329c3.3257 0 10.856 1.1348 18.518 6.3372 7.6623 5.2024 13.096 13.147 14.976 22.216h0.41794c2.5077 0.21091 4.667 1.9685 5.9209 4.9212 0.83589 1.9685 1.2538 4.3588 0.9752 6.7491-0.34829 6.1163-3.8312 10.686-8.0106 10.686h-0.34829c-0.41794 0-0.76623-0.070303-1.1842-0.21091-5.6422 12.795-18.39 21.302-32.391 21.302s-26.748-8.4363-32.321-21.302c-0.41794 0.070303-0.76623 0.21091-1.1842 0.21091h-0.34829c-4.1794 0-7.6623-4.5697-8.0803-10.686-0.41794-5.5539 2.0201-10.194 5.5726-11.389-2.438-1.3358-4.2491-2.8824-5.294-4.5697-0.4876-0.77333-0.27863-1.8982 0.55726-2.3903 0.76623-0.49212 1.8807-0.28121 2.3684 0.56242 0.83589 1.2654 2.5077 2.6012 4.7367 3.726 2.5077-8.7878 8.2892-16.24 16.161-20.88 7.8713-4.64 15.632-5.2827 18.958-5.2827zm13.224 16.25c-5.085 6.5382-12.538 11.67-20.967 14.342-4.4581 1.4061-9.0555 2.1091-13.514 2.1091-4.0401 0-7.8713-0.63272-11.424-1.7576-0.27863 1.7576-0.41794 3.5151-0.41794 5.2727 0 3.937 0.69657 7.8739 2.0897 11.53 4.667 12.373 16.718 20.739 29.883 20.739 13.165 0 25.216-8.366 29.953-20.669 1.3931-3.726 2.0897-7.5927 2.0897-11.53 0-0.77333 0-1.5467-0.069658-2.32-0.41794-0.1406-0.83589-0.35151-1.1842-0.49212-4.7367-2.1091-8.5679-5.1321-11.563-9.0691-2.0201-2.6715-3.6918-5.4133-4.876-8.1551zm-14.83 32.75c3.0822 0 5.4795 0.92903 6.9863 2.7097 0.68493 0.77419 0.68493 2.0129 0 2.7097-0.68493 0.77419-1.7123 0.77419-2.3973 0-0.89041-1.0065-2.3973-1.5484-4.589-1.5484s-3.6986 0.54194-4.589 1.5484c-0.68493 0.77419-1.7808 0.77419-2.3973 0-0.68493-0.77419-0.68493-2.0129 0-2.7097 1.5753-1.7806 3.9041-2.7097 6.9863-2.7097zm-34.766-16.862c-1.8111 0.49212-3.5525 3.6557-3.2739 7.8739 0.27863 4.5697 2.647 7.5927 4.7367 7.4521h0.13932c-1.1842-3.6557-1.8111-7.3818-1.8111-11.248 0-1.3358 0.069658-2.7418 0.20897-4.0776zm70.493 0v0.35151c0.13932 1.1951 0.20897 2.4606 0.20897 3.6557 0 3.8667-0.62692 7.5927-1.8111 11.248h0.13932c2.0201 0.14061 4.4581-2.8824 4.7367-7.3818 0.13932-1.8279-0.13932-3.6557-0.76623-5.2024-0.62692-1.4061-1.5325-2.3903-2.5077-2.6715zm-17.727 3.8617c1.933 0 3.5 1.567 3.5 3.5s-1.567 3.5-3.5 3.5-3.5-1.567-3.5-3.5 1.567-3.5 3.5-3.5zm-34 0c1.933 0 3.5 1.567 3.5 3.5s-1.567 3.5-3.5 3.5-3.5-1.567-3.5-3.5 1.567-3.5 3.5-3.5zm34.731-26.359c-0.4876 1.0545-0.9752 2.0388-1.6021 3.023 1.1145 3.0933 2.9256 6.3272 5.294 9.4909 2.438 3.2339 5.6422 5.7648 9.4037 7.5927-1.6021-8.0848-6.2692-15.256-13.096-20.107zm-18.25-5.6945c-5.2243 0-10.379 1.2654-14.976 3.726-7.8016 4.1479-13.444 11.319-15.812 19.966 4.1098 1.3358 12.469 3.023 23.057-0.35151 8.7768-2.8121 16.439-8.5066 21.037-15.607 0.76623-1.2654 1.4628-2.4606 2.0201-3.726-0.76623-0.49212-1.6021-0.91394-2.438-1.2654-4.1098-1.8279-8.4285-2.7418-12.887-2.7418z"/></g></g></svg>
